X: 1
T: Kipeen Scanlon's
C: Ed Reavy
M: 4/4
L: 1/8
R: hornpipe
K: Gmaj
K: G Major
|: c2 |\ 
BdGB AcFA | GBDC B,DGF | EGcB Acfg | a2 ge fdcA |
BdGB AcFA | GDB,D GBDG | EcBc DAFA | G2 B2 G2 :|
|: Bc |\ 
d2 Bd bgdB | c2 Ac agfe | d2 Bd c2 Ac | BdGd ADFA | 
B2 dB cAFA | GDB,D GBDG | ECA,C DAFA | G2 D2 G,2 :|
